X:1
T:En 1'ombre d'un buissonnet - Prez
T:James Gibb editions
T:#
%%score [ 1 2 3 ]
L:1/8
Q:1/4=108
M:4/4
K:F
V:1 treble nm="Alto" snm="A"
V:2 treble-8 nm="Tenor" snm="T"
V:3 bass nm="Bass" snm="B"
V:1
"^En 1'ombre d'un buissonnet""^Josquin des Prez\n(1450-1521)" z4 G4 | G4 D3 E | (FG A4 G2- | %3
w: En|l'om- bre d'un|buis\- * * *|
 G2) ^F2 G4 | z8 |[M:4/4] z8 | B6 A2 | G6 F2 | (D3 _E F2) ((G2 | GF)) (F4 E2) | F4 G2 G2 | %11
w: * son- net,|||Tout au|long d'u-|ne * * ri\-|* * viè\- *|re, J'ai trou-|
 G4 D3 E | (FG A4) (G2- | G2 ^F2) G4 | z8 | z8 | B6 A2 | G6 F2 | (D3 _E F2) (G2- | GF F4) E2 | %20
w: vé là le|fils * * Mar\-|* * guet|||Qui pri-|ait sa|da\- * * me|* * * chè-|
 F4 z4 | G2 G2 G4 | A2 A2 B3 A | G2 G2 D2 _E2- | E2 D4 C2 | D4 D4 | z8 | z8 | _E4 D2 D2 | %29
w: re,|En di- sant|par sa ma- niè-|re: "Je vous ai\-|* me fin|coeur doux."|||A- donc ré-|
 C3 D (EF G2- | G2) F4 E2 | (F3 G AB c2- | c2) G2 A2 B2- | B (AGF ED) F2- | F2 E2 D4 | C8 | z8 | %37
w: pon- dit la * *|* ber- gè-|re: * * * *|* "Ro- bin com\-|* ment * * * * l'at\-|* ten- dez-|vous,||
 z8 | z4 c4 | B4 G2 (A2- | AGFE D2) A2- | A2 G4 ^F2 | !fermata!G8 |] %43
w: |Ro-|bin com- ment|* * * * * l'at\-|* ten- dez-|vous."|
V:2
 c4 c4 | G3 (A Bc d2- | d2) c4 =B2 | c4 z4 | _e6 d2 |[M:4/4][K:treble-8] c6 B2 | (G3 A B2) (c2- | %7
w: En l'om-|bre d'un * * *|* buis- son-|net,|Tout au|long d'u-|ne * * ri\-|
 cB) (B4 A2) | B8 | z8 | z2 c2 c2 c2 | G3 A (Bc d2- | d2) (c4 =B2) | c4 z4 | _e6 d2 | c6 B2 | %16
w: * * viè\- *|re,||J'ai trou- vé|là le fils * *|* Mar\- *|guet|Qui pri-|ait sa|
 (G3 A B2) (c2- | cB) (B4 A2) | B8 | z8 | c2 c2 d4- | d2 d2 e2 e2 | (f3 _e d2) d2 | d3 c (BA) B2- | %24
w: da\- * * me|* * chè\- *|re,||En di- sant|* par sa ma-|niè\- * * re:|"Je vous ai\- * me|
 B2 A4 G2 | A4 z4 | B4 A2 A2 | G3 A (Bc d2- | d2) c4 =B2 | c8 | z8 | z4 f4 | e4 c2 (d2- | %33
w: * fin coeur|doux."|A- donc ré-|pon- dit la\- * *|* ber- gè-|re:||"Ro-|bin com- ment|
 dc BA G2) d2- | d2 c4 =B2 | (c3 d ef g2- | g2) d2 e2 (f2- | f_edc) B2 c2- | c2 B2 A4 | %39
w: * * * * * l'at\-|* ten- dez-|vous, * * * *|* Ro- bin com\-|* * * * ment l'at\-|* ten- dez-|
 G2 d2 _e2 c2 | (d3 c B2) A2 | (B3 c) A4 | !fermata!G8 |] %43
w: vous, Ro- bin com-|ment * * l'at-|ten- * dez-|vous."|
V:3
 z8 | G,4 G,4 | D,2 F,4 G,2 | A,4 G,4 | C6 B,2 |[M:4/4] (_E3 D E2 D2- | DCB,A, G,2) F,2 | %7
w: |En l'om-|bre d'un buis-|son- net,|Tout au|long * * *|* * * * * d'u-|
 _E,3 D, C,4 | B,,2 (B,3 A,G,F,) | _E,2 F,2 (G,4 | F,4 C,4 | z2 G,2 G,2 G,2 | D,2 F,4 G,2 | %13
w: ne ri- viè-|re, d'u\- * * *|ne ri- viè\-|* re,|J'ai trou- vé|là le fils|
 A,4 G,4 | C6 B,2 | _E3 D E2 D2- | DCB,A, G,2) F,2 | _E,3 D, (C,4 | B,,2 B,4 A,G, | C2 F,2 G,4) | %20
w: Mar- guet|Qui pri-|ait * * *|* * * * * sa|da- me chè\-|||
 F,4 B,2 B,2 | B,2 B,2 C2 C2 | F,2 F,2 G,4- | G,2 G,2 G,4 | D,2 D,2 _E,4 | D,8- | D,8 | %27
w: re, En di-|sant par sa ma-|niè- re: "Je|* vous ai-|me fin coeur|doux."||
 _E,4 D,2 B,,2 | C,4 G,4 | (A,3 B, C2) C,2 | (F,4 G,4) | F,8 | z8 | z8 | z8 | z4 C4 | %36
w: A- donc ré-|pon- dit|la\- * * ber-|gè\- *|re:||||"Ro-|
 B,4 G,2 (A,2- | A,G,F,E, D,2) A,2- | A,2 G,4 ^F,2 | G,4 z2 F,2 | F,2 F,2 G,2 F,2 | (G,3 C,) D,4 | %42
w: bin com- ment|* * * * * l'at\-|* ten- dez-|vous, Ro-|bin com- ment l'at-|ten\- * dez-|
 !fermata!G,8 |] %43
w: vous."|

